X:750
T:Farewell to Whiskey
R:Country Dance
C:Niel Gow
M:C|
L:1/8
K:G
GE|D2G2B2GB|A2E2 EF GE|D2G2B2AB|d2B2B2d2|
e2g2B2d2|cB AG A2B2|D2G2 BA GA|B2G2G2:|
|:Bc|d2B2g2d2|cB AG A2Bc|d2Bd g2d2|e2g2g2d2|
ef ge d2Bd|cB AG A2B2|D2G2 BA GA|B2G2G2:|

